X: 3
T: Hinche's Delight
M: 6/8
L: 1/8
R: jig
K: Gmaj
|: A |\
B^AB GBG | ADE F2 G | A^GA fed | cAG FGA |
B/c/dB GBG | FDE F2 G | AF/G/A fed | cAF G2 :|
|: d |\ 
g2 g afd | gdg a2 d | gdg b2 g | a2 g ff/g/a |
ge/f/g fde | fed cde | f/g/af ged | cAF G2 :|
|: e/f/ |
geg fdf | ece d2 G | A^GA f2 d | cAG FGA |
ge/f/g fd/e/f | ec/d/e dBG | AF/G/A f2 d | cAF G2 :|
